X: 20332
Q: "With spirit."
M: 6/4
L: 1/8
K: D
f2e2d2 c3Bc2 | d4AG FD3D2 |\
f3ed2 c4Bc | dd3A2 F2D2 f2 |\
fg3a2 a4(gf) | e2f2g2 g4(fe) |
f2e2d2 c3Bc2 | d2F2G2 A4AA |\
d2d2d2 B2B2B2 | e2(gf)(ed) {d2}c4A2 |\
d3e (fg) a2f2d2 | (de)f2(ed) d4AA |\
d2d2d2 B2B2B2 | e3fe2 {d2}c4A2 |\
d3e (fg) a2f2d2 |df3(ed) d4 |]


